public/tech_stack_icons/jest.svg

<svg xmlns="http://www.w3.org/2000/svg" fill="none" viewBox="0 0 512 512"><path fill="#99425B" d="M0 0h512v512H0z"/><path fill="#fff" d="M473.966 252.504c0-27.941-21.129-51.453-49.494-58.162L488 24H173.171l63.673 170.879c-27.474 7.251-47.725 30.353-47.725 57.766 0 20.146 11.086 38.01 27.926 49.023-6.641 8.598-14.331 16.528-23.043 24.047-16.397 13.977-34.582 24.719-54.225 31.842-17.728-10.883-25.406-30.095-18.467-47.294 27.034-7.519 46.695-30.491 46.695-57.49 0-33.175-29.7-60.051-66.055-60.051-36.493 0-66.174 27.003-66.174 60.189 0 16.393 7.377 31.431 19.203 42.172-1.036 1.889-2.066 3.759-3.103 5.775-9.897 18.547-21.129 39.503-25.421 63.015-8.567 47.007 5.467 84.766 39.3 106.121C84.815 481.956 105.803 488 128.407 488c38.843 0 78.298-17.737 116.408-34.936 27.19-12.216 55.258-24.988 82.887-31.159 10.198-2.285 20.832-3.633 32.063-5.107 22.742-2.954 46.238-6.045 67.367-17.196 24.671-13.026 41.511-34.795 46.394-59.779 3.68-19.215 0-38.554-9.462-55.481a55.83 55.83 0 0 0 9.901-31.838Zm-28.804 0c0 18.67-16.698 33.854-37.232 33.854-20.535 0-37.233-15.184-37.233-33.854 0-6.048 1.773-11.82 4.872-16.789 1.179-1.889 2.665-3.76 4.133-5.376a30.87 30.87 0 0 1 5.174-4.428l.156-.142c1.174-.806 2.505-1.616 3.835-2.412 0 0 .145 0 .145-.141.591-.269 1.186-.669 1.784-.937.141 0 .283-.142.435-.142.598-.254 1.334-.523 2.066-.796.7-.244 1.39-.513 2.071-.806.145 0 .297-.145.438-.145.595-.124 1.189-.396 1.773-.523.156 0 .453-.142.595-.142.736-.127 1.33-.269 2.066-.4h.156l2.212-.41c.152 0 .435 0 .59-.127.595 0 1.179-.142 1.773-.142h.736c.736 0 1.487-.127 2.364-.127h1.925c.58 0 1.037 0 1.617.127h.297c1.189.145 2.364.269 3.553.541 16.84 3.219 29.699 16.927 29.699 33.317ZM214.381 50.862h232.395L393.443 193.93c-2.212.411-4.434 1.075-6.642 1.744L330.665 91.57 274.37 195.003c-2.222-.665-4.586-1.075-6.939-1.475l-53.05-142.666Zm105.633 189.945c-2.803-12.629-9.898-23.908-19.94-32.237l30.591-56.146 30.87 57.352c-9.161 8.329-15.806 18.943-18.467 31.031h-23.054Zm-74.009-21.213c.736-.145 1.331-.269 2.067-.41h.438c.595-.127 1.193-.127 1.773-.273h.595c.594 0 1.033-.127 1.627-.127h5.765c.58 0 1.033.127 1.472.127.297 0 .438 0 .736.146.594.127 1.033.127 1.631.268.138 0 .294 0 .591.128.74.141 1.476.268 2.066.41h.145c.595.127 1.19.254 1.77.527.156 0 .297.141.594.141.439.128 1.033.269 1.472.538.156 0 .297.127.453.127.58.273 1.179.414 1.773.683h.141c.736.254 1.331.523 1.926.937h.145c.591.269 1.185.665 1.78.934.145 0 .145.145.282.145.595.254 1.037.665 1.632.934l.156.127c1.769 1.209 3.397 2.557 5.01 3.904l.156.128c1.475 1.474 2.947 3.091 4.137 4.838 3.839 5.376 6.061 11.693 6.061 18.543 0 18.675-16.698 33.844-37.233 33.844-20.534 0-37.232-15.169-37.232-33.844-.153-15.721 11.815-29.015 28.071-32.775Zm-145.385-.951c20.537 0 37.232 15.183 37.232 33.854 0 18.674-16.695 33.854-37.232 33.854-20.535 0-37.233-15.18-37.233-33.854 0-18.671 16.698-33.854 37.233-33.854Zm343.651 116.48c-3.245 17.181-14.93 32.237-32.063 41.231-16.104 8.471-35.903 11.152-56.734 13.836-11.369 1.475-23.337 3.091-34.866 5.645-30.728 6.854-60.272 20.291-88.934 33.175-36.638 16.531-71.221 32.11-103.266 32.11-16.698 0-31.624-4.297-45.8-13.294-32.501-20.418-30.888-58.7-27.034-79.659 3.538-19.622 13.44-38.024 22.898-55.619.58-1.079 1.033-2.017 1.613-3.095a62.003 62.003 0 0 0 10.199 2.426c-5.609 28.478 10.336 57.893 41.365 72.409l5.62 2.68 6.05-2.016c25.86-8.329 49.792-21.892 70.92-40.029 11.968-10.214 22.166-21.224 30.733-33.186 3.397.542 6.797.683 10.194.683 30.733 0 56.578-19.215 63.97-45.009h24.813c7.392 25.925 33.248 45.006 63.981 45.006 12.264 0 23.637-3.088 33.379-8.326 3.853 10.073 5.028 20.545 2.962 31.032Z"/></svg>

<svg  viewBox="0 0 512 512" fill="none" xmlns="http://www.w3.org/2000/svg">
<rect width="512" height="512" fill="#99425B"/>
<path d="M473.966 252.504C473.966 224.563 452.837 201.051 424.472 194.342L488 24H173.171L236.844 194.879C209.37 202.13 189.119 225.232 189.119 252.645C189.119 272.791 200.205 290.655 217.045 301.668C210.404 310.266 202.714 318.196 194.002 325.715C177.605 339.692 159.42 350.434 139.777 357.557C122.049 346.674 114.371 327.462 121.31 310.263C148.344 302.744 168.005 279.772 168.005 252.773C168.005 219.598 138.305 192.722 101.95 192.722C65.4568 192.722 35.7757 219.725 35.7757 252.911C35.7757 269.304 43.1534 284.342 54.9795 295.083C53.9426 296.972 52.913 298.842 51.8761 300.858C41.9788 319.405 30.7473 340.361 26.4549 363.873C17.8881 410.88 31.922 448.639 65.7541 469.994C84.8164 481.956 105.804 488 128.408 488C167.251 488 206.706 470.263 244.816 453.064C272.006 440.848 300.074 428.076 327.703 421.905C337.901 419.62 348.535 418.272 359.766 416.798C382.508 413.844 406.004 410.753 427.133 399.602C451.804 386.576 468.644 364.807 473.527 339.823C477.207 320.608 473.527 301.269 464.065 284.342C470.529 274.989 473.986 263.88 473.966 252.504ZM445.162 252.504C445.162 271.174 428.464 286.358 407.93 286.358C387.395 286.358 370.697 271.174 370.697 252.504C370.697 246.456 372.47 240.684 375.569 235.715C376.748 233.826 378.234 231.955 379.702 230.339C381.259 228.676 382.994 227.191 384.876 225.911L385.032 225.769C386.206 224.963 387.537 224.153 388.867 223.357C388.867 223.357 389.012 223.357 389.012 223.216C389.603 222.947 390.198 222.547 390.796 222.279C390.937 222.279 391.079 222.137 391.231 222.137C391.829 221.883 392.565 221.614 393.297 221.341C393.997 221.097 394.687 220.828 395.368 220.535C395.513 220.535 395.665 220.39 395.806 220.39C396.401 220.266 396.995 219.994 397.579 219.867C397.735 219.867 398.032 219.725 398.174 219.725C398.91 219.598 399.504 219.456 400.24 219.325H400.396L402.608 218.915C402.76 218.915 403.043 218.915 403.198 218.788C403.793 218.788 404.377 218.646 404.971 218.646H405.707C406.443 218.646 407.194 218.519 408.071 218.519H409.996C410.576 218.519 411.033 218.519 411.613 218.646H411.91C413.099 218.791 414.274 218.915 415.463 219.187C432.303 222.406 445.162 236.114 445.162 252.504ZM214.381 50.8616H446.776L393.443 193.931C391.231 194.342 389.009 195.006 386.801 195.675L330.665 91.57L274.37 195.003C272.148 194.338 269.784 193.928 267.431 193.528L214.381 50.8616ZM320.014 240.807C317.211 228.178 310.116 216.899 300.074 208.57L330.665 152.424L361.535 209.776C352.374 218.105 345.729 228.719 343.068 240.807H320.014ZM246.005 219.594C246.741 219.449 247.336 219.325 248.072 219.184H248.51C249.105 219.057 249.703 219.057 250.283 218.911H250.878C251.472 218.911 251.911 218.784 252.505 218.784H258.27C258.85 218.784 259.303 218.911 259.742 218.911C260.039 218.911 260.18 218.911 260.478 219.057C261.072 219.184 261.511 219.184 262.109 219.325C262.247 219.325 262.403 219.325 262.7 219.453C263.44 219.594 264.176 219.721 264.766 219.863H264.911C265.506 219.99 266.101 220.117 266.681 220.39C266.837 220.39 266.978 220.531 267.275 220.531C267.714 220.659 268.308 220.8 268.747 221.069C268.903 221.069 269.044 221.196 269.2 221.196C269.78 221.469 270.379 221.61 270.973 221.879H271.114C271.85 222.133 272.445 222.402 273.04 222.816H273.185C273.776 223.085 274.37 223.481 274.965 223.75C275.11 223.75 275.11 223.895 275.247 223.895C275.842 224.149 276.284 224.56 276.879 224.829L277.035 224.956C278.804 226.165 280.432 227.513 282.045 228.86L282.201 228.988C283.676 230.462 285.148 232.079 286.338 233.826C290.177 239.202 292.399 245.519 292.399 252.369C292.399 271.044 275.701 286.213 255.166 286.213C234.632 286.213 217.934 271.044 217.934 252.369C217.781 236.648 229.749 223.354 246.005 219.594ZM100.62 218.643C121.157 218.643 137.852 233.826 137.852 252.497C137.852 271.171 121.157 286.351 100.62 286.351C80.0853 286.351 63.3867 271.171 63.3867 252.497C63.3867 233.826 80.0853 218.643 100.62 218.643ZM444.271 335.123C441.026 352.304 429.341 367.36 412.208 376.354C396.104 384.825 376.305 387.506 355.474 390.19C344.105 391.665 332.137 393.281 320.608 395.835C289.88 402.689 260.336 416.126 231.674 429.01C195.036 445.541 160.453 461.12 128.408 461.12C111.71 461.12 96.7839 456.823 82.6086 447.826C50.1069 427.408 51.7202 389.126 55.574 368.167C59.1124 348.545 69.0133 330.143 78.472 312.548C79.0521 311.469 79.5052 310.531 80.0853 309.453C83.3445 310.531 86.7415 311.342 90.2835 311.879C84.675 340.357 100.62 369.772 131.649 384.288L137.269 386.968L143.319 384.952C169.179 376.623 193.111 363.06 214.239 344.923C226.207 334.709 236.405 323.699 244.972 311.737C248.369 312.279 251.769 312.42 255.166 312.42C285.899 312.42 311.744 293.205 319.136 267.411H343.949C351.341 293.336 377.197 312.417 407.93 312.417C420.194 312.417 431.567 309.329 441.309 304.091C445.162 314.164 446.337 324.636 444.271 335.123Z" fill="white"/>
</svg>
